X: 18680
T: I'll Turn Off Your Water
R: reel
M: 4/4
K: Dmajor
|:EB,EG FB B/B/B|dBAF BFAF|~E3 G FBBc|dBAF BdAF|
EB,EG F ~B3|dBAF A2 de|fdec dfec|cdAF BFAF:|
|:Beeg faef|afbf afed|Beeg faef|afed BA F/G/A|
Beeg faef|afbf a2 ge|fdec dfec|cdAF BFAF:|

